Sweet-Rainbow/icons/distributor-logo-debian.svg

<?xml version="1.0" encoding="UTF-8" standalone="no"?>
<!-- Generator: Gravit.io -->

<svg
   xmlns:dc="http://purl.org/dc/elements/1.1/"
   xmlns:cc="http://creativecommons.org/ns#"
   xmlns:rdf="http://www.w3.org/1999/02/22-rdf-syntax-ns#"
   xmlns:svg="http://www.w3.org/2000/svg"
   xmlns="http://www.w3.org/2000/svg"
   xmlns:sodipodi="http://sodipodi.sourceforge.net/DTD/sodipodi-0.dtd"
   xmlns:inkscape="http://www.inkscape.org/namespaces/inkscape"
   style="isolation:isolate"
   viewBox="0 0 36 36"
   width="48"
   height="48"
   version="1.1"
   id="svg9"
   sodipodi:docname="distributor-logo-debian.svg"
   inkscape:version="0.92.4 (5da689c313, 2019-01-14)">
  <metadata
     id="metadata15">
    <rdf:RDF>
      <cc:Work
         rdf:about="">
        <dc:format>image/svg+xml</dc:format>
        <dc:type
           rdf:resource="http://purl.org/dc/dcmitype/StillImage" />
        <dc:title></dc:title>
      </cc:Work>
    </rdf:RDF>
  </metadata>
  <defs
     id="defs13" />
  <sodipodi:namedview
     pagecolor="#ffffff"
     bordercolor="#666666"
     borderopacity="1"
     objecttolerance="10"
     gridtolerance="10"
     guidetolerance="10"
     inkscape:pageopacity="0"
     inkscape:pageshadow="2"
     inkscape:window-width="640"
     inkscape:window-height="480"
     id="namedview11"
     showgrid="false"
     inkscape:zoom="29.365243"
     inkscape:cx="25.325443"
     inkscape:cy="32"
     inkscape:current-layer="svg9"
     units="px" />
  <linearGradient
     id="_lgradient_22"
     x1="0"
     y1="0.5"
     x2="1"
     y2="0.5"
     gradientTransform="matrix(34,0,0,44.201,7,1.9)"
     gradientUnits="userSpaceOnUse">
    <stop
       offset="0%"
       stop-opacity="1"
       style="stop-color:rgb(242,55,239)"
       id="stop2" />
    <stop
       offset="98.69565217391305%"
       stop-opacity="1"
       style="stop-color:rgb(252,82,82)"
       id="stop4" />
  </linearGradient>
  <g
     id="g826"
     transform="matrix(0.81447964,0,0,0.81447964,-1.5475114,-1.5475114)">
    <path
       id="path7"
       d="m 37.049,20.817 c 0.042,1.193 -0.334,1.773 -0.673,2.797 l -0.612,0.318 c -0.499,1.014 0.05,0.644 -0.308,1.45 -0.781,0.724 -2.366,2.265 -2.873,2.406 -0.371,-0.008 0.251,-0.457 0.332,-0.632 -1.044,0.748 -0.838,1.123 -2.435,1.579 l -0.047,-0.109 c -3.937,1.935 -9.406,-1.899 -9.334,-7.13 -0.042,0.332 -0.12,0.249 -0.207,0.382 -0.203,-2.691 1.19,-5.394 3.54,-6.499 2.299,-1.187 4.993,-0.701 6.639,0.903 -0.904,-1.237 -2.704,-2.549 -4.836,-2.427 -2.09,0.035 -4.045,1.422 -4.698,2.928 -1.07,0.704 -1.195,2.714 -1.661,3.082 -0.628,4.818 1.181,6.899 4.24,9.348 0.48,0.338 0.135,0.39 0.2,0.648 -1.017,-0.497 -1.947,-1.247 -2.712,-2.166 0.406,0.621 0.844,1.224 1.411,1.698 -0.959,-0.338 -2.24,-2.425 -2.613,-2.51 1.652,3.089 6.702,5.418 9.347,4.262 -1.224,0.047 -2.779,0.026 -4.153,-0.505 -0.579,-0.31 -1.363,-0.952 -1.223,-1.072 3.609,1.407 7.337,1.065 10.459,-1.549 0.795,-0.647 1.663,-1.746 1.914,-1.761 -0.378,0.594 0.065,0.286 -0.225,0.809 0.79,-1.333 -0.345,-0.543 0.817,-2.302 l 0.429,0.617 c -0.16,-1.108 1.317,-2.452 1.166,-4.202 0.339,-0.535 0.378,0.577 0.019,1.808 0.499,-1.366 0.132,-1.586 0.259,-2.713 0.138,0.379 0.321,0.781 0.414,1.181 -0.325,-1.32 0.332,-2.223 0.496,-2.99 -0.162,-0.074 -0.502,0.583 -0.58,-0.976 0.012,-0.677 0.181,-0.355 0.246,-0.522 -0.127,-0.076 -0.461,-0.595 -0.664,-1.591 0.146,-0.235 0.393,0.607 0.594,0.641 -0.129,-0.792 -0.351,-1.395 -0.361,-2.003 -0.586,-1.279 -0.207,0.171 -0.682,-0.549 -0.623,-2.031 0.518,-0.472 0.595,-1.394 0.944,1.429 1.483,3.646 1.731,4.564 -0.189,-1.119 -0.494,-2.204 -0.867,-3.253 0.288,0.127 -0.463,-2.302 0.374,-0.694 -0.893,-3.428 -3.818,-6.632 -6.51,-8.135 0.329,0.315 0.744,0.71 0.596,0.772 C 33.253,4.494 33.489,4.429 33.297,4.077 32.207,3.614 32.134,4.115 31.414,4.078 29.358,2.939 28.962,3.06 27.069,2.347 l 0.086,0.42 C 25.794,2.293 25.569,2.946 24.097,2.768 24.008,2.696 24.569,2.504 25.031,2.434 23.714,2.616 23.776,2.163 22.487,2.484 22.805,2.251 23.141,2.097 23.48,1.9 22.406,1.968 20.916,2.552 21.376,2.02 19.625,2.836 16.514,3.982 14.769,5.692 L 14.714,5.309 c -0.8,1.002 -3.488,2.994 -3.702,4.294 l -0.214,0.052 c -0.416,0.736 -0.686,1.57 -1.016,2.327 -0.544,0.969 -0.797,0.373 -0.72,0.525 -1.071,2.268 -1.603,4.172 -2.062,5.736 0.327,0.511 0.008,3.076 0.131,5.129 -0.537,10.142 6.815,19.987 14.851,22.26 1.178,0.441 2.929,0.425 4.419,0.468 -1.757,-0.525 -1.984,-0.277 -3.697,-0.901 -1.235,-0.608 -1.506,-1.302 -2.381,-2.095 l 0.347,0.639 c -1.716,-0.636 -0.998,-0.785 -2.394,-1.248 l 0.37,-0.504 C 18.09,41.947 17.173,41.013 16.922,40.494 l -0.609,0.025 c -0.73,-0.941 -1.12,-1.62 -1.091,-2.147 l -0.197,0.366 c -0.224,-0.399 -2.691,-3.534 -1.411,-2.803 -0.238,-0.226 -0.554,-0.369 -0.896,-1.02 l 0.26,-0.311 c -0.614,-0.827 -1.133,-1.888 -1.093,-2.242 0.328,0.463 0.556,0.55 0.782,0.63 -1.555,-4.03 -1.643,-0.222 -2.82,-4.103 l 0.248,-0.02 C 9.905,28.567 9.788,28.242 9.635,27.921 l 0.109,-1.128 c -1.119,-1.349 -0.313,-5.747 -0.152,-8.16 0.113,-0.979 0.935,-2.024 1.561,-3.661 l -0.381,-0.069 c 0.729,-1.327 4.16,-5.331 5.75,-5.125 0.77,-1.01 -0.153,-0.004 -0.304,-0.258 1.692,-1.828 2.224,-1.291 3.365,-1.621 1.23,-0.762 -1.056,0.299 -0.473,-0.29 2.128,-0.568 1.508,-1.291 4.284,-1.579 0.293,0.174 -0.68,0.269 -0.923,0.495 1.772,-0.907 5.61,-0.7 8.103,0.502 2.892,1.412 6.142,5.585 6.271,9.511 l 0.146,0.041 c -0.074,1.561 0.228,3.367 -0.297,5.024 l 0.355,-0.785"
       inkscape:connector-curvature="0"
       style="fill:url(#_lgradient_22)" />
  </g>
</svg>

<?xml version="1.0" encoding="UTF-8" standalone="no"?><!-- Generator: Gravit.io --><svg xmlns="http://www.w3.org/2000/svg" xmlns:xlink="http://www.w3.org/1999/xlink" style="isolation:isolate" viewBox="0 0 48 48" width="48pt" height="48pt"><linearGradient id="_lgradient_22" x1="0" y1="0.5" x2="1" y2="0.5" gradientTransform="matrix(34,0,0,44.201,7,1.9)" gradientUnits="userSpaceOnUse"><stop offset="0%" stop-opacity="1" style="stop-color:rgb(242,55,239)"/><stop offset="98.69565217391305%" stop-opacity="1" style="stop-color:rgb(252,82,82)"/></linearGradient><path d=" M 37.049 20.817 C 37.091 22.01 36.715 22.59 36.376 23.614 L 35.764 23.932 C 35.265 24.946 35.814 24.576 35.456 25.382 C 34.675 26.106 33.09 27.647 32.583 27.788 C 32.212 27.78 32.834 27.331 32.915 27.156 C 31.871 27.904 32.077 28.279 30.48 28.735 L 30.433 28.626 C 26.496 30.561 21.027 26.727 21.099 21.496 C 21.057 21.828 20.979 21.745 20.892 21.878 C 20.689 19.187 22.082 16.484 24.432 15.379 C 26.731 14.192 29.425 14.678 31.071 16.282 C 30.167 15.045 28.367 13.733 26.235 13.855 C 24.145 13.89 22.19 15.277 21.537 16.783 C 20.467 17.487 20.342 19.497 19.876 19.865 C 19.248 24.683 21.057 26.764 24.116 29.213 C 24.596 29.551 24.251 29.603 24.316 29.861 C 23.299 29.364 22.369 28.614 21.604 27.695 C 22.01 28.316 22.448 28.919 23.015 29.393 C 22.056 29.055 20.775 26.968 20.402 26.883 C 22.054 29.972 27.104 32.301 29.749 31.145 C 28.525 31.192 26.97 31.171 25.596 30.64 C 25.017 30.33 24.233 29.688 24.373 29.568 C 27.982 30.975 31.71 30.633 34.832 28.019 C 35.627 27.372 36.495 26.273 36.746 26.258 C 36.368 26.852 36.811 26.544 36.521 27.067 C 37.311 25.734 36.176 26.524 37.338 24.765 L 37.767 25.382 C 37.607 24.274 39.084 22.93 38.933 21.18 C 39.272 20.645 39.311 21.757 38.952 22.988 C 39.451 21.622 39.084 21.402 39.211 20.275 C 39.349 20.654 39.532 21.056 39.625 21.456 C 39.3 20.136 39.957 19.233 40.121 18.466 C 39.959 18.392 39.619 19.049 39.541 17.49 C 39.553 16.813 39.722 17.135 39.787 16.968 C 39.66 16.892 39.326 16.373 39.123 15.377 C 39.269 15.142 39.516 15.984 39.717 16.018 C 39.588 15.226 39.366 14.623 39.356 14.015 C 38.77 12.736 39.149 14.186 38.674 13.466 C 38.051 11.435 39.192 12.994 39.269 12.072 C 40.213 13.501 40.752 15.718 41 16.636 C 40.811 15.517 40.506 14.432 40.133 13.383 C 40.421 13.51 39.67 11.081 40.507 12.689 C 39.614 9.261 36.689 6.057 33.997 4.554 C 34.326 4.869 34.741 5.264 34.593 5.326 C 33.253 4.494 33.489 4.429 33.297 4.077 C 32.207 3.614 32.134 4.115 31.414 4.078 C 29.358 2.939 28.962 3.06 27.069 2.347 L 27.155 2.767 C 25.794 2.293 25.569 2.946 24.097 2.768 C 24.008 2.696 24.569 2.504 25.031 2.434 C 23.714 2.616 23.776 2.163 22.487 2.484 C 22.805 2.251 23.141 2.097 23.48 1.9 C 22.406 1.968 20.916 2.552 21.376 2.02 C 19.625 2.836 16.514 3.982 14.769 5.692 L 14.714 5.309 C 13.914 6.311 11.226 8.303 11.012 9.603 L 10.798 9.655 C 10.382 10.391 10.112 11.225 9.782 11.982 C 9.238 12.951 8.985 12.355 9.062 12.507 C 7.991 14.775 7.459 16.679 7 18.243 C 7.327 18.754 7.008 21.319 7.131 23.372 C 6.594 33.514 13.946 43.359 21.982 45.632 C 23.16 46.073 24.911 46.057 26.401 46.1 C 24.644 45.575 24.417 45.823 22.704 45.199 C 21.469 44.591 21.198 43.897 20.323 43.104 L 20.67 43.743 C 18.954 43.107 19.672 42.958 18.276 42.495 L 18.646 41.991 C 18.09 41.947 17.173 41.013 16.922 40.494 L 16.313 40.519 C 15.583 39.578 15.193 38.899 15.222 38.372 L 15.025 38.738 C 14.801 38.339 12.334 35.204 13.614 35.935 C 13.376 35.709 13.06 35.566 12.718 34.915 L 12.978 34.604 C 12.364 33.777 11.845 32.716 11.885 32.362 C 12.213 32.825 12.441 32.912 12.667 32.992 C 11.112 28.962 11.024 32.77 9.847 28.889 L 10.095 28.869 C 9.905 28.567 9.788 28.242 9.635 27.921 L 9.744 26.793 C 8.625 25.444 9.431 21.046 9.592 18.633 C 9.705 17.654 10.527 16.609 11.153 14.972 L 10.772 14.903 C 11.501 13.576 14.932 9.572 16.522 9.778 C 17.292 8.768 16.369 9.774 16.218 9.52 C 17.91 7.692 18.442 8.229 19.583 7.899 C 20.813 7.137 18.527 8.198 19.11 7.609 C 21.238 7.041 20.618 6.318 23.394 6.03 C 23.687 6.204 22.714 6.299 22.471 6.525 C 24.243 5.618 28.081 5.825 30.574 7.027 C 33.466 8.439 36.716 12.612 36.845 16.538 L 36.991 16.579 C 36.917 18.14 37.219 19.946 36.694 21.603 L 37.049 20.818" fill="url(#_lgradient_22)"/></svg>
